!!!!SEGMENT: Wil3002-Irons_nous_tous_jours_coucher.krn
!!!id: Wil3002
!!!AGN: Chanson
!!!SCT: Thomas (1972)
!!!voices: 4
!!!COM: Adrian Willaert
!!!OTL: Irons nous tous jours coucher
**kern	**kern	**kern	**kern
*part4	*part3	*part2	*part1
*staff4	*staff3	*staff2	*staff1
*I"Bassus	*I"Tenor	*I"Altus	*I"Superius
*I'B	*I'T	*I'A	*I'S
*clefF4	*clefGv2	*clefGv2	*clefG2
*k[b-]	*k[b-]	*k[b-]	*k[b-]
*F:	*F:	*F:	*F:
*M2/1	*M2/1	*M2/1	*M2/1
*met(C|)	*met(C|)	*met(C|)	*met(C|)
=1	=1	=1	=1
!	!	!LO:TX:a:t=Canon&colon; altus/bassus at the octave	!LO:TX:a:t=Canon&colon; superius/tenor at the octave
0r	0r	1.f	1f
.	.	.	1cc
.	.	2f	.
=2	=2	=2	=2
0r	0r	1e	1cc
.	.	1f	1dd
=3	=3	=3	=3
0r	0r	1g	1b-y
.	.	1e	1cc
=4	=4	=4	=4
1.F	1F	0f	0a
.	1c	.	.
2F	.	.	.
=5	=5	=5	=5
1E	1c	0r	0r
1F	1d	.	.
=6	=6	=6	=6
1G	1B-y	0r	0r
1E	1c	.	.
=7	=7	=7	=7
0F	0A	0r	1f
.	.	.	1cc
=8	=8	=8	=8
0r	0r	1c	1cc
.	.	1g	1dd
=9	=9	=9	=9
0r	0r	1g	1b-y
.	.	2.a	1cc
.	.	4g	.
=10	=10	=10	=10
0r	1F	4f	0a
.	.	4e	.
.	.	1f	.
.	1c	.	.
.	.	4e	.
.	.	4d	.
=11	=11	=11	=11
1C	1.c	2e	0r
.	.	2e	.
1G	.	1d	.
.	2d	.	.
=12	=12	=12	=12
1G	1B-y	1G	0r
2.A	1c	1r	.
4G	.	.	.
=13	=13	=13	=13
4F	0A	2.c	0r
4E	.	.	.
1F	.	.	.
.	.	4B-y	.
.	.	2c	.
4E	.	2d	.
4D	.	.	.
=14	=14	=14	=14
2E	0r	2G	1g
2E	.	1g	.
1D	.	.	1a
.	.	2f#i	.
=15	=15	=15	=15
1GG	0r	4g	1b-y
.	.	4f	.
.	.	4e	.
.	.	4d	.
1r	.	2c	1a
.	.	2d	.
=16	=16	=16	=16
2.C	0r	2G	1g
.	.	1g	.
4BB-y	.	.	.
2C	.	.	1a
2D	.	2f	.
=17	=17	=17	=17
2GG	1G	2e	1b-y
1G	.	2d	.
.	1A	2.c	1a
2F#i	.	.	.
.	.	4d	.
=18	=18	=18	=18
4G	1B-y	4e	1g
4F	.	4d	.
4E	.	1g	.
4D	.	.	.
2C	1A	.	1a
2D	.	2f#i	.
=19	=19	=19	=19
2GG	1G	1g	1b-y
1G	.	.	.
.	1A	1d	1a
2F	.	.	.
=20	=20	=20	=20
2E	1B-y	0r	0r
2D	.	.	.
2.C	1A	.	.
4D	.	.	.
=21	=21	=21	=21
4E	1G	0r	0r
4D	.	.	.
1G	.	.	.
.	1A	.	.
2F#i	.	.	.
=22	=22	=22	=22
1G	1B-y	1d	0r
1D	1A	1f	.
=23	=23	=23	=23
0r	0r	1.e	1g
.	.	.	2.g
.	.	4d	.
.	.	4c	4a
=24	=24	=24	=24
0r	0r	4d	2b-y
.	.	4c	.
.	.	4B-y	1a
.	.	4A	.
.	.	1B-y	.
.	.	.	2g
=25	=25	=25	=25
1D	0r	0A	2.a
.	.	.	4g
1F	.	.	4a
.	.	.	4b-y
.	.	.	[2cc
=26	=26	=26	=26
1.E	1G	0r	2cc]
.	.	.	4b-y
.	.	.	4a
.	2.G	.	2b-y
4D	.	.	2cc
4C	4A	.	.
=27	=27	=27	=27
4D	2B-y	0r	1.f
4C	.	.	.
4BB-y	1A	.	.
4AA	.	.	.
1BB-y	.	.	.
.	2G	.	4e
.	.	.	4d
=28	=28	=28	=28
0AA	2.A	1r	0c
.	4G	.	.
.	4A	1c	.
.	4B-y	.	.
.	[2c	.	.
=29	=29	=29	=29
0r	2c]	1g	0r
.	4B-y	.	.
.	4A	.	.
.	2B-y	1g	.
.	2c	.	.
=30	=30	=30	=30
0r	1.F	1.a	0r
.	4E	2f	.
.	4D	.	.
=31	=31	=31	=31
1r	0C	1g	1c
1C	.	1e	2cc
.	.	.	2cc
=32	=32	=32	=32
1G	0r	1d	1dd
1G	.	1d	1b-y
=33	=33	=33	=33
1.A	0r	[0c	1cc
.	.	.	1a
2F	.	.	.
=34	=34	=34	=34
1G	1C	0c]	1g
1E	2c	.	1g
.	2c	.	.
=35	=35	=35	=35
1D	1d	0r	0f
1D	1B-y	.	.
=36	=36	=36	=36
[0C	1c	1r	0r
.	1A	1c	.
=37	=37	=37	=37
0C]	1G	1g	0r
.	1G	1g	.
=38	=38	=38	=38
0r	0F	1.a	1r
.	.	.	1f
.	.	2f	.
=39	=39	=39	=39
1r	0r	1g	1b-y
1C	.	1e	1cc
=40	=40	=40	=40
1G	0r	1d	1.dd
1G	.	1d	.
.	.	.	2b-y
=41	=41	=41	=41
1.A	1r	0c	1cc
.	1F	.	1a
2F	.	.	.
=42	=42	=42	=42
1G	1B-y	1r	1g
1E	1c	1c	1g
=43	=43	=43	=43
1D	1.d	2F	2.f
.	.	1f	.
.	.	.	4g
1D	.	.	2a
.	2B-y	4e	2b-y
.	.	4d	.
=44	=44	=44	=44
0C	1c	2.e	2a
.	.	.	2.g
.	.	4f	.
.	1A	2e	.
.	.	.	4f
.	.	[2c	4e
.	.	.	4d
=45	=45	=45	=45
1r	1G	2c]	2e
.	.	2B-y	1f
1C	1G	[1cl	.
.	.	.	2e
=46	=46	=46	=46
00FFl	00Fl	00c]	00fl
==	==	==	==
*-	*-	*-	*-
!!!system-decoration: [*]
!!!RDF**kern: i = editorial accidental
!!!RDF**kern: l = terminal long
!!!ENC: Benjamin Ory
!!!END: 2020/12/18
!!!EED: Benjamin Ory
!!!EEV: 2021/04/30
!!!YEC: Copyright 2021 Benjamin Ory, All Rights Reserved
!!!ONB: Translated from MusicXML on 2021/04/30
